X: 26096
T: McFadden's Handsome Daughter
R: reel
M: 4/4
K: Amajor
~E3F ABcA|~B3c ecAF|~E3F A2af|1 ecBd cBAF:|2 ecBd cAAB||
ce eee feaf|efe cABA FB|ce eee feaf|edcB ABce|
aece aecA|B2cA BAFg|agfe fgaf|edcB ABcd||
efe ef e ~c3|ecac bB~B2|ceef ecAF|EFAB cA ABA|
efe ef e ~c3|ecac bB~B2|ceef ~a3e|fece fecA||

